src/images/single-assets/superOETHb.svg

<svg width="40" height="40" viewBox="0 0 40 40" fill="none" xmlns="http://www.w3.org/2000/svg">
<g clip-path="url(#clip0_3790_1097)">
<path d="M20.0668 39.9332C31.0756 39.8963 39.9701 30.942 39.9332 19.9332C39.8963 8.92435 30.942 0.0298583 19.9332 0.0667488C8.9244 0.103639 0.0299057 9.05794 0.0667962 20.0667C0.103687 31.0756 9.05799 39.97 20.0668 39.9332Z" fill="url(#paint0_linear_3790_1097)"/>
<path opacity="0.2" d="M32.4594 32.3797C39.294 25.4995 39.2597 14.3748 32.3795 7.54021C25.4993 0.705639 14.3746 0.739869 7.54004 7.62008L32.4594 32.3797Z" fill="white"/>
<path d="M19.1859 12.1272C19.4535 12.0999 19.725 12.0859 19.9998 12.0859C24.369 12.0859 27.9109 15.6278 27.9109 19.997C27.9109 23.4041 25.7571 26.3081 22.7368 27.4219L20.0525 31.1969C26.2138 31.1685 31.1998 26.165 31.1998 19.997C31.1998 14.2051 26.8035 9.44012 21.1658 8.85694L19.1859 12.1272Z" fill="white"/>
<path d="M19.7457 8.7998C13.6774 8.93491 8.7998 13.8963 8.7998 19.997C8.7998 25.7044 13.0689 30.4147 18.5881 31.1089L20.9001 27.8574C20.6046 27.8909 20.3042 27.9081 19.9998 27.9081C15.6306 27.9081 12.0887 24.3662 12.0887 19.997C12.0887 16.4958 14.3632 13.5258 17.5151 12.4839L19.7457 8.7998Z" fill="white"/>
<path d="M22.737 27.4219C25.7573 26.3082 27.9111 23.4042 27.9111 19.9971H31.2C31.2 26.1651 26.2141 31.1686 20.0527 31.197L22.737 27.4219Z" fill="url(#paint1_linear_3790_1097)"/>
<path d="M19.7457 8.7998C13.6774 8.93491 8.7998 13.8963 8.7998 19.997C8.7998 19.997 12.0887 20.0442 12.0887 19.997C12.0887 16.4958 14.3632 13.5258 17.5151 12.4839L19.7457 8.7998Z" fill="url(#paint2_linear_3790_1097)"/>
<path d="M19.9799 29.1528L25.6035 21.2335L19.9799 24.5523L14.3594 21.2335L19.9799 29.1528Z" fill="white"/>
<path opacity="0.1" d="M19.9795 29.1528L25.6031 21.2335L19.9795 24.5523V29.1528Z" fill="#4C52F9"/>
<path d="M19.9626 23.5013L25.6142 20.1764L19.9626 10.8418L14.311 20.1764L19.9626 23.5013Z" fill="url(#paint3_linear_3790_1097)"/>
<path d="M19.9626 23.5013L25.6142 20.1764L19.9626 10.8418L14.311 20.1764L19.9626 23.5013Z" fill="white"/>
<path opacity="0.1" d="M19.9624 23.501L14.3108 20.1764L19.9624 10.8418L19.9624 23.501Z" fill="#4C52F9"/>
<path opacity="0.1" d="M19.9626 23.5013V17.5269L14.311 20.1764L19.9626 23.5013Z" fill="#4C52F9"/>
<path opacity="0.1" d="M19.9627 23.5013V17.5269L25.6143 20.1764L19.9627 23.5013Z" fill="#4C52F9"/>
</g>
<defs>
<linearGradient id="paint0_linear_3790_1097" x1="0.0667962" y1="20.0667" x2="39.9332" y2="19.9332" gradientUnits="userSpaceOnUse">
<stop offset="0.25" stop-color="#1A82FF"/>
<stop offset="0.5" stop-color="#7A26F3"/>
<stop offset="0.74" stop-color="#D6453B"/>
</linearGradient>
<linearGradient id="paint1_linear_3790_1097" x1="12.626" y1="34.0303" x2="24.9608" y2="25.9505" gradientUnits="userSpaceOnUse">
<stop stop-color="#4C52F9" stop-opacity="0.5"/>
<stop offset="1" stop-color="white"/>
</linearGradient>
<linearGradient id="paint2_linear_3790_1097" x1="26.0442" y1="3.64442" x2="14.2423" y2="12.1717" gradientUnits="userSpaceOnUse">
<stop stop-color="#4C52F9" stop-opacity="0.5"/>
<stop offset="1" stop-color="white"/>
</linearGradient>
<linearGradient id="paint3_linear_3790_1097" x1="7.93903" y1="14.2221" x2="17.8401" y2="20.2643" gradientUnits="userSpaceOnUse">
<stop stop-color="#1C313F"/>
<stop offset="1" stop-color="white"/>
</linearGradient>
<clipPath id="clip0_3790_1097">
<rect width="40" height="40" fill="white"/>
</clipPath>
</defs>
</svg>

<svg xmlns="http://www.w3.org/2000/svg" width="40" height="40" fill="none"><g clip-path="url(#a)"><path fill="url(#b)" d="M20.067 39.933c11.009-.037 19.903-8.991 19.866-20S30.942.03 19.933.067.03 9.057.067 20.067s8.991 19.903 20 19.866"/><path fill="#fff" d="M32.46 32.38c6.834-6.88 6.8-18.005-.08-24.84C25.5.706 14.375.74 7.54 7.62z" opacity=".2"/><path fill="#fff" d="M19.186 12.127q.401-.04.814-.041a7.911 7.911 0 0 1 2.737 15.336l-2.684 3.775c6.16-.028 11.147-5.032 11.147-11.2 0-5.792-4.396-10.557-10.034-11.14z"/><path fill="#fff" d="M19.746 8.8C13.677 8.935 8.8 13.896 8.8 19.997c0 5.707 4.269 10.418 9.788 11.112l2.312-3.252a7.911 7.911 0 0 1-3.385-15.373z"/><path fill="url(#c)" d="M22.737 27.422a7.91 7.91 0 0 0 5.174-7.425H31.2c0 6.168-4.986 11.172-11.147 11.2z"/><path fill="url(#d)" d="M19.746 8.8C13.677 8.935 8.8 13.896 8.8 19.997c0 0 3.289.047 3.289 0a7.915 7.915 0 0 1 5.426-7.513z"/><path fill="#fff" d="m19.98 29.153 5.624-7.92-5.624 3.32-5.62-3.32z"/><path fill="#4C52F9" d="m19.98 29.153 5.623-7.92-5.623 3.32z" opacity=".1"/><path fill="url(#e)" d="m19.963 23.501 5.651-3.325-5.651-9.334-5.652 9.334z"/><path fill="#fff" d="m19.963 23.501 5.651-3.325-5.651-9.334-5.652 9.334z"/><path fill="#4C52F9" d="m19.962 23.501-5.651-3.325 5.651-9.334z" opacity=".1"/><path fill="#4C52F9" d="M19.963 23.501v-5.974l-5.652 2.65zM19.963 23.501v-5.974l5.651 2.65z" opacity=".1"/></g><defs><linearGradient id="b" x1=".067" x2="39.933" y1="20.067" y2="19.933" gradientUnits="userSpaceOnUse"><stop offset=".25" stop-color="#1A82FF"/><stop offset=".5" stop-color="#7A26F3"/><stop offset=".74" stop-color="#D6453B"/></linearGradient><linearGradient id="c" x1="12.626" x2="24.961" y1="34.03" y2="25.951" gradientUnits="userSpaceOnUse"><stop stop-color="#4C52F9" stop-opacity=".5"/><stop offset="1" stop-color="#fff"/></linearGradient><linearGradient id="d" x1="26.044" x2="14.242" y1="3.644" y2="12.172" gradientUnits="userSpaceOnUse"><stop stop-color="#4C52F9" stop-opacity=".5"/><stop offset="1" stop-color="#fff"/></linearGradient><linearGradient id="e" x1="7.939" x2="17.84" y1="14.222" y2="20.264" gradientUnits="userSpaceOnUse"><stop stop-color="#1C313F"/><stop offset="1" stop-color="#fff"/></linearGradient><clipPath id="a"><path fill="#fff" d="M0 0h40v40H0z"/></clipPath></defs></svg>
